X:1
T:Puglia, 77.77.77
T:Puglia, 77.77.77
T:R. E. DeReef, 1899
T:Public Domain Courtesy of the Cyber Hymnal™
C:R. E. DeReef, 1899
Z:Public Domain
Z:Courtesy of the Cyber Hymnal™
%%score ( 1 2 ) ( 3 4 )
L:1/8
Q:1/4=105
M:4/4
K:D
V:1 treble 
V:2 treble 
V:3 bass 
V:4 bass 
V:1
 [DF]3 [CG] [DA]2 [DF]2 | (GA) (Bc) [Fd]4 | [Ac]3 [GB] [FA]2 [DF]2 | [DE]2 (FG) [DF]4 | %4
 [DF]3 [DF] [E^G]2 [EG]2 | [EA]2 [EA]2 [Ed]4 | [Ec]3 [Ec] [DB]2 [Fd]2 | [D^G]2 [DB]2 [CA]4 | %8
 [^DA]3 [DB] [FA]2 [EG]2 | [EG]3 [EA] [EG]2 [DF]2 | [DF]2 [FA]2 [EG]2 [EB]2 | [DF]2 [CE]2 D4 x |] %12
V:2
 x8 | C2 G2 x4 | x8 | x2 C2 x4 | x8 | x8 | x8 | x8 | x8 | x8 | x8 | x4 D4 x |] %12
V:3
 [D,A,]3 [E,A,] [F,A,]2 [D,A,]2 | [E,A,]2 [E,A,]2 A,2 D2 | [G,D]3 [G,D] [A,D]2 A,2 | %3
 A,2 [A,,A,]2 [D,A,]4 | [D,A,]3 [D,A,] [D,B,]2 [D,B,]2 | [C,A,]2 [C,A,]2 [B,,^G,]4 | %6
 [A,,A,]3 [^A,,=G,] [B,,F,]2 [B,,B,]2 | [E,B,]2 [E,^G,]2 (A,2 =G,2) | %8
 [B,,F,]3 [B,,F,] [^D,B,]2 [E,B,]2 | [C,A,]3 [C,A,] [D,A,]4 | [D,A,]2 [^D,=C]2 [E,B,]2 [G,B,]2 | %11
 A,3 z G, [D,F,]4 |] %12
V:4
 x8 | x4 D,4 | x6 A,2 | A,2 x6 | x8 | x8 | x8 | x4 A,,4 | x8 | x8 | x8 | A,2 A,,2 x5 |] %12

